X:1
T:Etiam et Mihi, 87.87.3
T:Etiam et Mihi, 87.87.3
T:John Bacchus Dykes, 1877
T:Public Domain Courtesy of the Cyber Hymnal™
C:John Bacchus Dykes, 1877
Z:Public Domain
Z:Courtesy of the Cyber Hymnal™
%%score ( 1 2 ) ( 3 4 )
L:1/8
Q:1/4=112
M:4/4
K:D
V:1 treble 
V:2 treble 
V:3 bass 
V:4 bass 
V:1
 [DF]2 [DF]2 [CE]3 [^DF] | [EG]2 [EG]2 (GA) [DF]2 | A2 [FB]2 [Ec]2 [Dd]2 | d2 (cB) A4 | %4
 [FB]2 [FB]2 [EB]2 [Ee]2 | [Ed]2 [Ec]2 [EB]2 [EA]2 | [Dd]2 [Dc]2 [DB]2 [DA]2 | [DB]2 [EA]2 [DF]4 | %8
 D4 [CE]4 | D8 |] %10
V:2
 x8 | x4 E2 x2 | (FE) x6 | (EF) ^G2 A4 | x8 | x8 | x8 | x8 | D4 x4 | D8 |] %10
V:3
 [D,A,]2 [D,A,]2 [G,A,]3 [F,A,] | [E,B,]2 ([E,C][D,B,]) [C,A,]2 [D,A,]2 | %2
 A,2 [D,A,]2 [E,A,]2 [F,A,]2 | (^G,A,) (ED) [A,C]4 | [A,D]2 [A,D]2 [G,B,]2 [G,B,]2 | %5
 G,2 [G,A,]2 [G,B,]2 [G,C]2 | [F,A,]2 [F,A,]2 G,2 [F,A,]2 | [B,,F,]2 [C,E,]2 [D,A,]4 | %8
 [A,,F,]4 [A,,G,]4 | [D,F,]8 |] %10
V:4
 x8 | x8 | (D,C,) x6 | E,2 E,2 x4 | x8 | G,2 x6 | x8 | x8 | x8 | x8 |] %10

